X:0831
T:Bonny Lass of Fisherrow.
M:C|
L:1/8
Q:1/2=104
I: :: ||
Z:Jack Campin * www.campin.me.uk * 2009
K:D
AFdA BdAF|DFAF E/E/E B2|AFAd BGBd|ceAc d/d/d d2:|
fdad fadb|adfd efgb    |adfa gbeg|faef d/d/d d2 |
fdad fadb|adfd efge    |dBGd ceAg|faef d/d/d d2|]

